X:1
T:Title
%%score { ( 1 3 ) | 2 }
L:1/8
Q:1/4=100
M:4/4
K:Db
V:1 treble nm="Grand Piano"
V:3 treble 
V:2 bass 
V:1
 [A,DF]2 [A,FA]2 [A,DF][K:bass][G,CE][F,D][K:treble][A,CE] | [A,DF]2 [DFA]2 [DGB]2 [DFA]2 | %2
w: J.~K.~Everett * * * * *||
 [DGB][DBd][DAc][DGB] [DFA][DFA][B,DF][A,D] | [A,CG]2 [A,DF]2 [A,CE]4 | %4
w: ||
 [A,DF]2 [A,FA]2 [A,DF][K:bass][G,CE][F,D][K:treble][A,CE] | [A,DF]2 [FA]2 [FB]2 F2 | %6
w: ||
 GABc ddd[Fd] |[M:11/16] [Ec]-<[Ec][DB]-<[DB][A,CA]3/2 |[M:3/8] ABc | %9
w: |||
[M:4/4] [Fe]2 [Fd]2 [Fe]2 [Fd]2 | G6 z2 | [EGc]2 [CGB]2 [CEG]2 [CGB]2 | A6 z2 | %13
w: ||||
 [Fe]2 [Fd]2 [Gc]2 [Ad]2 | [Ac]2 [GB]2 [FA][FA][_F=G][=FA] | B2 d2 d2 c->[Gc] | [Fd]6 z2 |] %17
w: ||||
V:2
 D,2 D,2 A,,A,,A,,A,, | D,2 D,2 D,2 D,2 | G,G,G,G, D,D,D,F, | E,2 D,2 A,,4 | D,2 D,2 A,,A,,A,,A,, | %5
 D,2 [D,D]2 [D,D]2 [D,A,D]2 | [G,B,D][G,A,D][G,D][G,A,D] [F,A,D][F,A,D][F,A,D][D,A,] | %7
[M:11/16] [E,A,]-<[E,A,][E,=G,]-<[E,G,]A,,3/2 |[M:3/8] A,[K:treble][A,=G][A,_G] | %9
[M:4/4][K:bass] [D,A,]2 [D,A,]2 [D,A,]2 [D,A,]2 | %10
 [E,A,C][E,A,][A,,A,][A,,A,] [E,A,][A,,A,][A,,A,]A,, | A,,2 A,,2 A,,2 A,,2 | %12
 [D,D][D,D][D,F,][D,A,] [D,D][D,D][D,D][D,D] | [D,A,]2 [D,A,]2 [E,A,]2 [F,D]2 | %14
 [G,D]2 [G,D]2 [D,D][D,D][D,D][D,D] | [G,DG]2 [G,B,G]2 [A,F]2[K:bass] [A,,A,]2 | [D,A,]6 z2 |] %17
V:3
 x5[K:bass] x2[K:treble] x | x8 | x8 | x8 | x5[K:bass] x2[K:treble] x | x8 | x8 |[M:11/16] x11/2 | %8
[M:3/8] x3 |[M:4/4] x8 | z CCC C[CE][DF][CEG] | x8 | FFDE F[FA][FB][Fc] | x8 | x8 | z4 z2 E2 | %16
 x8 |] %17

